X:053
T: Good Fellow (The)
N: O'Farrell's Pocket Companion v.1 (Sky ed. p.41)
N: "Irish"
M: 9/8
L: 1/8
R: slip jig
Q: 320
K: Dm
A|: DED D2d F3|DED D2d GEC|DED D2d F3|EFE cBA GEC :|
P:2
AcA GBG F3|AcA GBG AFD|AcA GBG F3|EFE cBA GEC :|
P:3
D2a ged c3|d2e f2a gec|faf ged c3|BAG FAF GEC :|
P:4
DED dAG F3|DED dAF GEC|DED dAG F3|EFE cBA GEC :|
